packages/foundations/assets/icons/functional/images/social/face_sad_24.svg

<svg xmlns="http://www.w3.org/2000/svg" width="24" height="24" fill="none"><g clip-path="url(#a)"><path fill="#1A1C1F" fill-rule="evenodd" d="M12 3a9 9 0 0 1 9 9 9 9 0 0 1-9 9 9 9 0 0 1-9-9 9 9 0 0 1 9-9m0 2c-3.86 0-7 3.14-7 7s3.14 7 7 7 7-3.14 7-7-3.14-7-7-7m-.001 8c2.31 0 3.857 1.153 3.922 1.202a1 1 0 0 1-1.203 1.598c-.023-.017-1.116-.8-2.719-.8-1.613 0-2.708.792-2.719.8a1 1 0 0 1-1.397-.205.997.997 0 0 1 .194-1.393C8.141 14.153 9.689 13 11.999 13M9.3 8.5a1.5 1.5 0 1 1 0 3 1.5 1.5 0 0 1 0-3m5.4 0a1.5 1.5 0 1 1 0 3 1.5 1.5 0 0 1 0-3" clip-rule="evenodd"/></g><defs><clipPath id="a"><path fill="#fff" d="M0 0h24v24H0z"/></clipPath></defs></svg>

<svg width="24" height="24" viewBox="0 0 24 24" fill="none" xmlns="http://www.w3.org/2000/svg">
<g clip-path="url(#clip0_187_384)">
<path fill-rule="evenodd" clip-rule="evenodd" d="M12 3C16.971 3 21 7.029 21 12C21 16.971 16.971 21 12 21C7.029 21 3 16.971 3 12C3 7.029 7.029 3 12 3ZM12 5C8.14 5 5 8.14 5 12C5 15.86 8.14 19 12 19C15.86 19 19 15.86 19 12C19 8.14 15.86 5 12 5ZM11.999 13C14.309 13 15.856 14.153 15.921 14.202C16.361 14.536 16.447 15.163 16.113 15.603C15.916 15.862 15.617 15.999 15.315 15.999C15.108 15.999 14.898 15.935 14.718 15.8C14.695 15.783 13.602 15 11.999 15C10.386 15 9.291 15.792 9.28 15.8C8.838 16.127 8.212 16.036 7.883 15.595C7.554 15.156 7.639 14.534 8.077 14.202C8.141 14.153 9.689 13 11.999 13ZM9.3 8.5C10.1284 8.5 10.8 9.17157 10.8 10C10.8 10.8284 10.1284 11.5 9.3 11.5C8.47157 11.5 7.8 10.8284 7.8 10C7.8 9.17157 8.47157 8.5 9.3 8.5ZM14.7 8.5C15.5284 8.5 16.2 9.17157 16.2 10C16.2 10.8284 15.5284 11.5 14.7 11.5C13.8716 11.5 13.2 10.8284 13.2 10C13.2 9.17157 13.8716 8.5 14.7 8.5Z" fill="#1A1C1F"/>
</g>
<defs>
<clipPath id="clip0_187_384">
<rect width="24" height="24" fill="white"/>
</clipPath>
</defs>
</svg>
